assets/Person in steamy room/Medium-Light/Flat/person_in_steamy_room_flat_medium-light.svg

<svg width="32" height="32" viewBox="0 0 32 32" fill="none" xmlns="http://www.w3.org/2000/svg">
<path d="M10.7935 12C13.0971 12 14.97 13.8731 14.97 16.177C14.97 17.4491 14.3991 18.581 13.5077 19.3523C14.4391 20.4741 15 21.9265 15 23.4992C15 27.0851 12.0855 30 8.5 30C4.91448 30 2 27.0851 2 23.4992C2 20.5142 4.0131 18 6.75732 17.2387C6.66718 16.8982 6.6171 16.5376 6.6171 16.177C6.6171 13.8731 8.48998 12 10.7935 12Z" fill="#E6E6E6"/>
<path d="M25.3829 16.177C25.3829 16.5476 25.3328 16.8982 25.2427 17.2387C27.9769 18 29.99 20.5142 30 23.4992C30 27.0851 27.0855 30 23.5 30C19.9145 30 17 27.0851 17 23.4992C17 21.9265 17.5609 20.4741 18.4923 19.3523C17.6009 18.581 17.03 17.4491 17.03 16.177C17.03 13.8731 18.9029 12 21.2065 12C23.51 12 25.3829 13.8731 25.3829 16.177Z" fill="#E6E6E6"/>
<path d="M27 30H5C5 30 5 29.3371 5 29C5 22.9249 9.92487 18 16 18C22.0751 18 27 22.9249 27 29C27 29.3371 27 30 27 30Z" fill="#FF6723"/>
<path d="M18.03 17.5901C18.03 17.9201 18.25 18.2001 18.57 18.2801C19.4234 18.4876 20.2377 18.7947 21 19.1882L15.975 29.9501L11 19.1655C11.7507 18.7828 12.5514 18.4836 13.39 18.2801C13.71 18.2001 13.93 17.9201 13.93 17.5901V15.6201C13.93 14.4901 14.85 13.5701 15.98 13.5701C17.11 13.5701 18.03 14.4901 18.03 15.6201V17.5901Z" fill="#E4B29A"/>
<path d="M10.6357 17C11.0761 16.3273 11.8767 15.6267 12.6357 15.5C13.1136 16.0752 13.4142 16.305 14.1357 16.5V17.5C14.1357 17.8217 13.9356 18.172 13.6357 18.25C13.2047 18.3767 12.7676 18.75 13.1357 19.75L16.0679 27.2636L19 19.75C19.3681 18.75 18.931 18.3767 18.5 18.25C18.2001 18.172 18 17.8217 18 17.5V16.5C18.7215 16.305 19.0221 16.0752 19.5 15.5C20.259 15.6267 21.0596 16.3273 21.5 17C22.0247 17.8092 22.328 19.0836 22 20L18.0173 30H14.1184L10.1357 20C9.80776 19.0836 10.111 17.8092 10.6357 17Z" fill="#FF8101"/>
<path d="M22.183 5.28792C21.8884 4.76792 21.4224 4.405 20.9029 4.22625C20.3351 4.03125 19.8477 3.6575 19.537 3.14292C19.1246 2.46042 18.3801 2 17.5284 2C17.2017 2 16.891 2.07042 16.6072 2.18958C16.2215 2.3575 15.7877 2.3575 15.402 2.18958C15.1128 2.07042 14.8021 2 14.4754 2C13.6345 2 12.9007 2.44417 12.4829 3.11042C12.1561 3.63583 11.6634 4.02583 11.0849 4.23167C10.5439 4.42125 10.0672 4.81125 9.77261 5.36917C9.34946 6.17625 9.43516 7.12958 9.91723 7.83917C10.094 8.09917 10.1904 8.40792 10.1904 8.72208V9.33716C10.2982 9.26122 10.4446 9.36951 10.5966 9.48195C10.7306 9.58103 10.8689 9.68333 10.989 9.66568V8.72208C10.989 7.64719 11.4469 7.9102 12.1861 8.33479C12.7432 8.65479 13.4601 9.06656 14.2611 9.06656H15.5466C15.8198 9.06656 16.0662 9.23448 16.168 9.48906C16.3494 9.89578 16.4766 9.50792 16.6536 8.9678C16.8632 8.3282 17.1429 7.4751 17.6656 7.4751H19.0796C19.8509 7.5076 20.4615 8.14677 20.4722 8.92135L20.424 9.95917C20.5335 9.97853 20.798 9.81623 21.0689 9.65006C21.381 9.45853 21.7016 9.26188 21.8027 9.33234V8.72208C21.8027 8.40792 21.8991 8.09917 22.0759 7.83917C22.5847 7.10792 22.6544 6.11667 22.183 5.28792Z" fill="#FFF9BA"/>
<path d="M10.25 11L11.6042 11V14.8644C10.7874 14.531 10.25 13.7274 10.25 12.8255V11Z" fill="#FFF9BA"/>
<path d="M21.75 11L20.3958 11V14.8644C21.2126 14.531 21.75 13.7274 21.75 12.8255V11Z" fill="#FFF9BA"/>
<path d="M12.75 10.625C12.75 11.5225 12.0225 12.25 11.125 12.25C10.2275 12.25 9.5 11.5225 9.5 10.625C9.5 9.72754 10.2275 9 11.125 9C12.0225 9 12.75 9.72754 12.75 10.625Z" fill="#E4B29A"/>
<path d="M22.5 10.625C22.5 11.5225 21.7725 12.25 20.875 12.25C19.9775 12.25 19.25 11.5225 19.25 10.625C19.25 9.72754 19.9775 9 20.875 9C21.7725 9 22.5 9.72754 22.5 10.625Z" fill="#E4B29A"/>
<path d="M10.6249 9.12003L10.9255 13.5475C11.1961 15.5266 12.9435 17 15.0122 17H16.9963C19.065 17 20.8124 15.5266 21.083 13.5475L21.3708 9.11865C21.3024 9.09675 21.232 9.07927 21.1599 9.06653L21.2082 8.02871C21.1975 7.25413 20.5869 6.61496 19.8156 6.58246H18.4015C17.4374 6.58246 16.5643 6.01371 16.168 5.12538C16.0662 4.8708 15.8198 4.70288 15.5466 4.70288H14.2611C12.3972 4.70288 10.8867 6.23038 10.8867 8.11538V9.05898C10.7968 9.07218 10.7094 9.09274 10.6249 9.12003Z" fill="#EEBFAA"/>
<path d="M15.6446 10.2827L15.1488 12.0325C15.0459 12.3906 15.2891 12.7488 15.6352 12.7488H16.3648C16.7109 12.7488 16.9541 12.3906 16.8512 12.0325L16.3554 10.2827C16.2526 9.90413 15.7474 9.90413 15.6446 10.2827Z" fill="#D19479"/>
<path d="M12.2072 10.309C12.3572 9.65873 12.9172 9.17627 13.5872 9.17627C14.2872 9.17627 14.8572 9.6902 14.9772 10.3824C15.0072 10.5398 14.8972 10.6761 14.7472 10.6761H12.4772C12.2972 10.6761 12.1672 10.4978 12.2072 10.309Z" fill="white"/>
<path d="M19.8472 10.309C19.6972 9.65873 19.1372 9.17627 18.4672 9.17627C17.7772 9.17627 17.1972 9.6902 17.0772 10.3824C17.0472 10.5398 17.1572 10.6761 17.3072 10.6761H19.5772C19.7572 10.6761 19.8872 10.4978 19.8472 10.309Z" fill="white"/>
<path d="M12.8872 10.4226C12.8872 9.89448 13.2972 9.46143 13.7972 9.46143C14.3072 9.46143 14.7172 9.88391 14.7072 10.4226C14.7072 10.5071 14.6972 10.5916 14.6772 10.6761H12.9172C12.8972 10.5916 12.8872 10.5071 12.8872 10.4226Z" fill="#7D4533"/>
<path d="M19.1672 10.4226C19.1672 9.89448 18.7572 9.46143 18.2572 9.46143C17.7572 9.46143 17.3472 9.88391 17.3472 10.4226C17.3472 10.5071 17.3572 10.5916 17.3772 10.6761H19.1372C19.1572 10.5916 19.1672 10.5071 19.1672 10.4226Z" fill="#7D4533"/>
<path d="M13.7973 9.87354C14.0873 9.87354 14.3173 10.1165 14.3173 10.4228C14.3173 10.5178 14.2973 10.6023 14.2573 10.6763H13.3373C13.2973 10.6023 13.2773 10.5178 13.2773 10.4228C13.2773 10.1165 13.5073 9.87354 13.7973 9.87354Z" fill="black"/>
<path d="M18.2573 9.87354C17.9673 9.87354 17.7373 10.1165 17.7373 10.4228C17.7373 10.5178 17.7573 10.6023 17.7973 10.6763H18.7173C18.7573 10.6023 18.7773 10.5178 18.7773 10.4228C18.7773 10.1165 18.5473 9.87354 18.2573 9.87354Z" fill="black"/>
<path d="M13.6474 10.0425C13.6474 10.1359 13.5758 10.2115 13.4874 10.2115C13.399 10.2115 13.3274 10.1359 13.3274 10.0425C13.3274 9.9492 13.399 9.87354 13.4874 9.87354C13.5758 9.87354 13.6474 9.9492 13.6474 10.0425Z" fill="white"/>
<path d="M18.1374 10.0425C18.1374 10.1359 18.0657 10.2115 17.9774 10.2115C17.889 10.2115 17.8174 10.1359 17.8174 10.0425C17.8174 9.9492 17.889 9.87354 17.9774 9.87354C18.0657 9.87354 18.1374 9.9492 18.1374 10.0425Z" fill="white"/>
<path d="M12.4039 7.99078L12.4048 7.99008L12.4059 7.98919L12.409 7.98684L12.4182 7.97996C12.4257 7.97445 12.4359 7.96713 12.4486 7.95828C12.4742 7.9406 12.5102 7.91681 12.556 7.88931C12.6475 7.8344 12.7791 7.7642 12.9452 7.69857C13.2775 7.56732 13.7527 7.45272 14.3223 7.51974C14.4861 7.53901 14.6033 7.6874 14.584 7.85118C14.5647 8.01497 14.4163 8.13212 14.2525 8.11285C13.8022 8.05986 13.4273 8.15026 13.1646 8.25402C13.0333 8.30589 12.9311 8.36069 12.8632 8.4014C12.8294 8.42172 12.8043 8.43839 12.7887 8.44923C12.7808 8.45464 12.7754 8.45858 12.7724 8.46078L12.7698 8.46272L12.7706 8.46208C12.6406 8.56317 12.4532 8.53982 12.3519 8.40986C12.2505 8.27979 12.2738 8.09216 12.4039 7.99078Z" fill="#A56953"/>
<path d="M19.7608 7.99062L19.759 7.98919L19.7559 7.98684L19.7467 7.97996C19.7392 7.97445 19.729 7.96713 19.7163 7.95828C19.6908 7.9406 19.6547 7.91681 19.6089 7.88931C19.5174 7.8344 19.3858 7.7642 19.2197 7.69857C18.8874 7.56732 18.4122 7.45272 17.8426 7.51974C17.6788 7.53901 17.5616 7.6874 17.5809 7.85118C17.6002 8.01497 17.7486 8.13212 17.9124 8.11285C18.3627 8.05986 18.7376 8.15026 19.0003 8.25402C19.1316 8.30589 19.2338 8.36069 19.3017 8.4014C19.3355 8.42172 19.3606 8.43839 19.3762 8.44923C19.3841 8.45464 19.3895 8.45858 19.3925 8.46078L19.395 8.46269C19.5251 8.56305 19.7119 8.53955 19.813 8.40986C19.9144 8.27979 19.8909 8.092 19.7608 7.99062Z" fill="#A56953"/>
<path d="M16.0005 13.8957C15.45 13.8957 14.9301 13.7569 14.4918 13.5219C14.3389 13.4365 14.186 13.618 14.2777 13.7675C14.6447 14.3549 15.2767 14.75 16.0005 14.75C16.7243 14.75 17.3563 14.3549 17.7233 13.7675C17.8151 13.618 17.652 13.4472 17.5093 13.5219C17.0709 13.7569 16.551 13.8957 16.0005 13.8957Z" fill="#990838"/>
<path d="M2 30H11C11 26.6832 8.31388 24 4.99339 24H2V30Z" fill="#F4F4F4"/>
<path d="M30 30H21C21 26.6832 23.6861 24 27.0066 24H30V30Z" fill="#F4F4F4"/>
</svg>

<svg xmlns="http://www.w3.org/2000/svg" width="32" height="32" fill="none"><path fill="#E6E6E6" d="M10.793 12a4.18 4.18 0 0 1 4.177 4.177c0 1.272-.57 2.404-1.462 3.175A6.483 6.483 0 0 1 15 23.5C15 27.085 12.085 30 8.5 30a6.499 6.499 0 0 1-1.743-12.761c-.09-.34-.14-.701-.14-1.062A4.18 4.18 0 0 1 10.793 12ZM25.383 16.177c0 .37-.05.721-.14 1.062A6.522 6.522 0 0 1 30 23.499C30 27.085 27.085 30 23.5 30a6.506 6.506 0 0 1-6.5-6.5c0-1.573.56-3.026 1.492-4.148a4.187 4.187 0 0 1-1.462-3.175A4.18 4.18 0 0 1 21.206 12a4.18 4.18 0 0 1 4.177 4.177Z"/><path fill="#FF6723" d="M27 30H5v-1c0-6.075 4.925-11 11-11s11 4.925 11 11v1Z"/><path fill="#E4B29A" d="M18.03 17.59c0 .33.22.61.54.69.853.208 1.668.515 2.43.908L15.975 29.95 11 19.166c.75-.383 1.551-.682 2.39-.886.32-.08.54-.36.54-.69v-1.97c0-1.13.92-2.05 2.05-2.05s2.05.92 2.05 2.05v1.97Z"/><path fill="#FF8101" d="M10.636 17c.44-.673 1.24-1.373 2-1.5.478.575.778.805 1.5 1v1c0 .322-.2.672-.5.75-.431.127-.868.5-.5 1.5l2.932 7.514L19 19.75c.368-1-.069-1.373-.5-1.5-.3-.078-.5-.428-.5-.75v-1c.721-.195 1.022-.425 1.5-1 .759.127 1.56.827 2 1.5.525.81.828 2.084.5 3l-3.983 10h-3.899l-3.982-10c-.328-.916-.025-2.19.5-3Z"/><path fill="#FFF9BA" d="M22.183 5.288a2.345 2.345 0 0 0-1.28-1.062 2.547 2.547 0 0 1-1.366-1.083A2.348 2.348 0 0 0 17.528 2c-.326 0-.637.07-.92.19-.387.167-.82.167-1.206 0a2.348 2.348 0 0 0-2.92.92c-.326.526-.819.916-1.397 1.122-.541.19-1.018.58-1.312 1.137a2.414 2.414 0 0 0 .144 2.47c.177.26.273.569.273.883v.615c.108-.076.255.033.407.145.134.099.272.201.392.184v-.944c0-1.075.458-.812 1.197-.387.557.32 1.274.732 2.075.732h1.286a.67.67 0 0 1 .621.422c.181.407.309.019.486-.521.21-.64.489-1.493 1.012-1.493h1.414a1.464 1.464 0 0 1 1.392 1.446l-.048 1.038c.11.02.374-.143.645-.309.312-.191.633-.388.734-.318v-.61c0-.314.096-.623.273-.883a2.394 2.394 0 0 0 .107-2.551ZM10.25 11h1.354v3.864a2.194 2.194 0 0 1-1.354-2.039V11ZM21.75 11h-1.354v3.864a2.194 2.194 0 0 0 1.354-2.039V11Z"/><path fill="#E4B29A" d="M12.75 10.625a1.625 1.625 0 1 1-3.25 0 1.625 1.625 0 0 1 3.25 0ZM22.5 10.625a1.625 1.625 0 1 1-3.25 0 1.625 1.625 0 0 1 3.25 0Z"/><path fill="#EEBFAA" d="m10.625 9.12.3 4.428C11.197 15.526 12.944 17 15.012 17h1.984c2.069 0 3.816-1.473 4.087-3.453l.288-4.428a1.61 1.61 0 0 0-.211-.052l.048-1.038a1.464 1.464 0 0 0-1.392-1.447H18.4a2.446 2.446 0 0 1-2.233-1.457.67.67 0 0 0-.621-.422H14.26c-1.864 0-3.374 1.527-3.374 3.412v.944c-.09.013-.178.034-.262.061Z"/><path fill="#D19479" d="m15.645 10.283-.496 1.75c-.103.358.14.716.486.716h.73c.346 0 .59-.358.486-.716l-.496-1.75a.364.364 0 0 0-.71 0Z"/><path fill="#fff" d="M12.207 10.309c.15-.65.71-1.133 1.38-1.133.7 0 1.27.514 1.39 1.206.03.158-.08.294-.23.294h-2.27c-.18 0-.31-.178-.27-.367ZM19.847 10.309c-.15-.65-.71-1.133-1.38-1.133-.69 0-1.27.514-1.39 1.206-.03.158.08.294.23.294h2.27c.18 0 .31-.178.27-.367Z"/><path fill="#7D4533" d="M12.887 10.423c0-.529.41-.962.91-.962.51 0 .92.423.91.962 0 .084-.01.169-.03.253h-1.76a1.097 1.097 0 0 1-.03-.253ZM19.167 10.423c0-.529-.41-.962-.91-.962s-.91.423-.91.962c0 .084.01.169.03.253h1.76c.02-.084.03-.169.03-.253Z"/><path fill="#000" d="M13.797 9.874c.29 0 .52.242.52.549 0 .095-.02.18-.06.253h-.92a.525.525 0 0 1-.06-.253c0-.306.23-.55.52-.55ZM18.257 9.874c-.29 0-.52.242-.52.549 0 .095.02.18.06.253h.92a.525.525 0 0 0 .06-.253c0-.306-.23-.55-.52-.55Z"/><path fill="#fff" d="M13.647 10.043a.165.165 0 0 1-.16.168.165.165 0 0 1-.16-.168c0-.094.072-.17.16-.17.089 0 .16.076.16.17ZM18.137 10.043a.165.165 0 0 1-.16.168.165.165 0 0 1-.16-.168c0-.094.072-.17.16-.17.089 0 .16.076.16.17Z"/><path fill="#A56953" d="M12.404 7.99h.002l.003-.003.01-.007a1.526 1.526 0 0 1 .137-.09 2.837 2.837 0 0 1 1.766-.37.299.299 0 1 1-.07.593 2.24 2.24 0 0 0-1.389.288 1.366 1.366 0 0 0-.09.06l-.003.002a.299.299 0 0 1-.366-.472ZM19.76 7.99h-.001l-.003-.003-.01-.007a1.526 1.526 0 0 0-.137-.09 2.837 2.837 0 0 0-1.766-.37.299.299 0 1 0 .07.593 2.24 2.24 0 0 1 1.389.288 1.366 1.366 0 0 1 .09.06l.003.002a.299.299 0 0 0 .366-.472Z"/><path fill="#990838" d="M16 13.896c-.55 0-1.07-.14-1.508-.374-.153-.085-.306.096-.214.245.367.588.999.983 1.722.983.724 0 1.356-.395 1.723-.982.092-.15-.071-.32-.214-.246a3.204 3.204 0 0 1-1.509.374Z"/><path fill="#F4F4F4" d="M2 30h9a6 6 0 0 0-6.007-6H2v6ZM30 30h-9a6 6 0 0 1 6.007-6H30v6Z"/></svg>
